X: 65
T:Jackson's Over the Water (#175)
M:6/8
L:1/8
S:Aird's Selections 1782-97
K:F
A/2G/2|FDD FDD|G>AG GFG|A>BA AGF|G>AG GFG|
A2 B AGF|cAc def|cAA "tr"AGF|G3 G2:|
|:g|fdd gee|fdd cAA|fdd gee|fdd d2 g|
fdd aa/2b/2a/2g/2|fdd def|cAA "tr"AGF|G3 G2:||

